X: 1
T: Siobhan O'Donnell's
R: reel
M: 4/4
L: 1/8
K: Amaj
A2ce a2ba|~f3a fece|effe cBAF|EFAB cBAF|
|~E3F ABce|f2af fece|efec dBcA|BAGB cAec:|
||:A2ce fece|fA A/2A/2A fAeA|fA A/2A/2A fAef|aefa eAce|
|effe cBAF|~E3F ABce|f2ec dBcA|BAGB cAec:|


Tune 729	Setting 30058

